src/components/00-materials/images-raw/On Board Device.svg

<svg width="96" height="96" viewBox="0 0 96 96" fill="none" xmlns="http://www.w3.org/2000/svg">
<path d="M79.4 20.2402H16.6C10.1935 20.2402 5 25.4337 5 31.8402V69.5002C5 75.9067 10.1935 81.1002 16.6 81.1002H79.4C85.8065 81.1002 91 75.9067 91 69.5002V31.8402C91 25.4337 85.8065 20.2402 79.4 20.2402Z" stroke="#00008F" stroke-width="2" stroke-linecap="round" stroke-linejoin="round"/>
<path d="M70.26 76.0903C71.9224 76.0903 73.27 74.7427 73.27 73.0803C73.27 71.4179 71.9224 70.0703 70.26 70.0703C68.5976 70.0703 67.25 71.4179 67.25 73.0803C67.25 74.7427 68.5976 76.0903 70.26 76.0903Z" stroke="#00008F" stroke-width="2" stroke-linecap="round" stroke-linejoin="round"/>
<path d="M80.3 76.0903C81.9624 76.0903 83.31 74.7427 83.31 73.0803C83.31 71.4179 81.9624 70.0703 80.3 70.0703C78.6376 70.0703 77.29 71.4179 77.29 73.0803C77.29 74.7427 78.6376 76.0903 80.3 76.0903Z" stroke="#00008F" stroke-width="2" stroke-linecap="round" stroke-linejoin="round"/>
<path d="M68.92 48.04C70.5768 48.04 71.92 46.6969 71.92 45.04C71.92 43.3832 70.5768 42.04 68.92 42.04C67.2631 42.04 65.92 43.3832 65.92 45.04C65.92 46.6969 67.2631 48.04 68.92 48.04Z" stroke="#00008F" stroke-width="2" stroke-linecap="round" stroke-linejoin="round"/>
<path d="M76 45.0002C76 48.9202 68.91 60.3502 68.91 60.3502C68.91 60.3502 61.84 48.9002 61.84 45.0002C61.9364 43.1875 62.7243 41.4809 64.0415 40.2319C65.3587 38.9829 67.1048 38.2866 68.92 38.2866C70.7352 38.2866 72.4813 38.9829 73.7985 40.2319C75.1157 41.4809 75.9036 43.1875 76 45.0002Z" stroke="#00008F" stroke-width="2" stroke-linecap="round" stroke-linejoin="round"/>
<path d="M11.52 27.27H84.48V65.05H11.52V27.27Z" stroke="#00008F" stroke-width="2" stroke-linecap="round" stroke-linejoin="round"/>
<path d="M33 19.2901C33 17.4201 34.21 14.8901 36.9 14.8901H59.08C61.77 14.8901 62.98 17.4201 62.98 19.2901M78 27.2701L42.8 33.5801L42.28 27.2701H37.26L36.43 34.5101L11.52 39.1601V43.9701L36.92 39.3101L35.57 65.0501H43.93L42.49 38.4901L84.48 30.0301V27.2701H78V27.2701Z" stroke="#00008F" stroke-width="2" stroke-linecap="round" stroke-linejoin="round"/>
</svg>

<svg width="96" height="96" viewBox="0 0 96 96" fill="none" xmlns="http://www.w3.org/2000/svg"><path d="M79.4 20.24H16.6c-6.407 0-11.6 5.194-11.6 11.6V69.5c0 6.407 5.194 11.6 11.6 11.6h62.8c6.406 0 11.6-5.193 11.6-11.6V31.84c0-6.406-5.194-11.6-11.6-11.6z" stroke="#00008F" stroke-width="2" stroke-linecap="round" stroke-linejoin="round"/><path d="M70.26 76.09a3.01 3.01 0 100-6.02 3.01 3.01 0 000 6.02zM80.3 76.09a3.01 3.01 0 100-6.02 3.01 3.01 0 000 6.02zM68.92 48.04a3 3 0 100-6 3 3 0 000 6z" stroke="#00008F" stroke-width="2" stroke-linecap="round" stroke-linejoin="round"/><path d="M76 45c0 3.92-7.09 15.35-7.09 15.35S61.84 48.9 61.84 45A7.09 7.09 0 0176 45z" stroke="#00008F" stroke-width="2" stroke-linecap="round" stroke-linejoin="round"/><path d="M11.52 27.27h72.96v37.78H11.52V27.27z" stroke="#00008F" stroke-width="2" stroke-linecap="round" stroke-linejoin="round"/><path d="M33 19.29c0-1.87 1.21-4.4 3.9-4.4h22.18c2.69 0 3.9 2.53 3.9 4.4M78 27.27l-35.2 6.31-.52-6.31h-5.02l-.83 7.24-24.91 4.65v4.81l25.4-4.66-1.35 25.74h8.36l-1.44-26.56 41.99-8.46v-2.76H78v0z" stroke="#00008F" stroke-width="2" stroke-linecap="round" stroke-linejoin="round"/></svg>
